X: 14
T:Western Country
% Nottingham Music Database
S:Old Time, via PR
M:4/4
L:1/4
K:D
d/2e/2|:"D"fd e/2d/2B|d/2B/2A FG|AA B/2d3/2|"A7"e/2fg/2 fe|
"D"f/2e/2d/2f/2 e/2d/2B|"D"d/2B/2A FF/2G/2|"A7"AA B/2c3/2|"D"d3/2e/2 d2::
"D"A/2B/2A/2G/2 F/2G/2A|"G"B3/2c/2 Bc/2B/2|"D"A/2B/2A/2G/2 F/2D/2F/2D/2|\
"A7"E3/2F/2 EF/2G/2|
"D"A/2B/2A/2G/2 F/2G/2A|"G"B3/2c/2 Bc/2B/2|"A7"A/2B/2c/2d/2 e/2g/2f/2e/2|\
"D"d/2B/2A/2F/2 D2:|<end>
<start>
